svg/l/KG.svg

<svg width="32" height="24" viewBox="0 0 32 24" fill="none" xmlns="http://www.w3.org/2000/svg">
<g clip-path="url(#clip0_270_67488)">
<rect width="32" height="24" fill="white"/>
<path fill-rule="evenodd" clip-rule="evenodd" d="M0 0V24H32V0H0Z" fill="#C51918"/>
<mask id="mask0_270_67488" style="mask-type:luminance" maskUnits="userSpaceOnUse" x="0" y="0" width="32" height="24">
<path fill-rule="evenodd" clip-rule="evenodd" d="M0 0V24H32V0H0Z" fill="white"/>
</mask>
<g mask="url(#mask0_270_67488)">
<path fill-rule="evenodd" clip-rule="evenodd" d="M15.982 17.8668C16.0892 17.8668 16.1957 17.864 16.3015 17.8585L16.9185 19.8262L17.0615 17.7705C17.2679 17.7331 17.4707 17.6853 17.6692 17.6275L18.7271 19.4011L18.3881 17.3673C18.5792 17.2839 18.7652 17.1909 18.9452 17.0889L20.3881 18.5737L19.5846 16.6706C19.7505 16.5463 19.9096 16.4136 20.0614 16.2731L21.8119 17.3887L20.5873 15.7204C20.7199 15.562 20.8442 15.3967 20.9598 15.2251L22.9218 15.9099L21.3436 14.5677C21.4357 14.3836 21.5185 14.1941 21.5913 13.9997L23.6579 14.2172L21.811 13.2726C21.8575 13.073 21.8937 12.8695 21.9193 12.6628L23.9807 12.4016L21.964 11.9049C21.963 11.696 21.9511 11.4896 21.9289 11.2863L23.8726 10.5612L21.798 10.5393C21.7487 10.3364 21.689 10.1377 21.6193 9.94358L23.3396 8.79511L21.3177 9.24787C21.2225 9.06229 21.1178 8.88234 21.0042 8.70865L22.4102 7.19855L20.5491 8.10113C20.4136 7.94245 20.2699 7.79093 20.1186 7.64722L21.1348 5.8576L19.5356 7.15993C19.367 7.03623 19.1916 6.92111 19.0101 6.81522L19.5819 4.84455L18.3308 6.47483C18.1379 6.39309 17.9399 6.32111 17.7373 6.25952L17.8353 4.21402L16.9976 6.08516C16.7916 6.05021 16.5819 6.02571 16.3693 6.01224L15.9892 4L15.6093 6.01133C15.3963 6.02432 15.1863 6.04836 14.9798 6.0829L14.1431 4.21402L14.241 6.25522C14.0372 6.3166 13.8381 6.38848 13.6442 6.47022L12.3966 4.84455L12.9663 6.80805C12.7831 6.91432 12.6061 7.02999 12.436 7.15437L10.8437 5.8576L11.8548 7.63834C11.7017 7.7832 11.5562 7.93604 11.4192 8.09619L9.56821 7.19855L10.9657 8.69956C10.8504 8.87516 10.7442 9.05718 10.6479 9.24498L8.63888 8.79511L10.3475 9.93582C10.2766 10.1324 10.2159 10.3338 10.166 10.5394L8.10581 10.5612L10.0357 11.2811C10.013 11.4873 10.0009 11.6966 10 11.9085L7.99774 12.4016L10.0445 12.6609C10.0704 12.8706 10.1072 13.0768 10.1545 13.2791L8.32049 14.2172L10.3733 14.0012C10.4471 14.198 10.5311 14.39 10.6247 14.5763L9.05667 15.9099L11.0069 15.2292C11.124 15.4026 11.25 15.5697 11.3844 15.7296L10.1666 17.3887L11.9085 16.2786C12.0618 16.4201 12.2227 16.5537 12.3904 16.6788L11.5904 18.5737L13.0281 17.0941C13.2095 17.1965 13.3968 17.2897 13.5894 17.3732L13.2513 19.4011L14.3072 17.6311C14.5064 17.6886 14.7099 17.7361 14.9172 17.7731L15.0599 19.8262L15.6767 17.8592C15.7779 17.8643 15.8796 17.8668 15.982 17.8668ZM20.482 11.9157C20.482 14.4005 18.4512 16.4148 15.946 16.4148C13.4408 16.4148 11.41 14.4005 11.41 11.9157C11.41 9.43088 13.4408 7.41654 15.946 7.41654C18.4512 7.41654 20.482 9.43088 20.482 11.9157ZM19.1101 13.3813C19.2994 12.9558 19.4046 12.4846 19.4046 11.9888C19.4046 11.5045 19.3042 11.0437 19.1231 10.6259C18.3404 10.6816 17.6768 10.8876 17.1385 11.1513C18.3333 11.6739 18.8737 12.5342 19.1101 13.3813ZM18.7246 14.0389C18.6269 14.1698 18.52 14.2935 18.4049 14.409C18.341 13.2285 17.836 12.3283 16.9303 11.3571C18.0516 11.8943 18.6841 13.1784 18.7246 14.0389ZM17.8664 14.85C17.803 14.892 17.7381 14.932 17.6719 14.9697C17.4027 13.6432 16.8929 12.5965 16.1834 11.76L16.3554 11.6304C16.3783 11.6131 16.4016 11.5959 16.4253 11.5787C17.3332 12.6228 17.9059 13.5186 17.8664 14.85ZM15.9754 15.4181C16.3778 15.4181 16.764 15.3488 17.1228 15.2214C16.8621 13.9592 16.4081 12.7836 15.7509 11.9353C14.9655 12.8702 14.5659 13.9267 14.5512 15.1093C14.985 15.3076 15.4673 15.4181 15.9754 15.4181ZM15.3153 11.529C15.3427 11.5504 15.3688 11.5717 15.3936 11.5929C14.5571 12.5443 14.0995 13.6172 14.0216 14.8074C13.9188 14.736 13.8201 14.6592 13.726 14.5773C14.0412 13.3189 14.5638 12.2807 15.3153 11.529ZM12.8177 10.6491C13.6038 10.7376 14.2243 10.9287 14.6892 11.15C13.5041 11.6536 13.0374 12.4649 12.8026 13.2924C12.6373 12.8906 12.5462 12.4504 12.5462 11.9888C12.5462 11.5135 12.6429 11.0607 12.8177 10.6491ZM13.2481 14.068C13.2217 14.0334 13.196 13.9983 13.1709 13.9628C13.2301 13.0938 13.7836 11.8607 14.9015 11.3523C14.1516 12.0801 13.5905 12.9085 13.2481 14.068ZM13.5019 9.61372C14.1259 8.96401 15.0034 8.55962 15.9754 8.55962C16.9322 8.55962 17.7975 8.95149 18.4196 9.58351C17.4407 9.69703 16.6107 9.94244 15.9367 10.3242C15.3358 9.97946 14.5236 9.74642 13.5019 9.61372Z" fill="#FFDC17"/>
</g>
</g>
<defs>
<clipPath id="clip0_270_67488">
<rect width="32" height="24" fill="white"/>
</clipPath>
</defs>
</svg>

<svg width="32" height="24" fill="none" xmlns="http://www.w3.org/2000/svg">
  <mask id="a" maskUnits="userSpaceOnUse" x="0" y="0" width="32" height="24">
    <path fill="#fff" d="M0 0h32v24H0z"/>
  </mask>
  <g mask="url(#a)">
    <path fill-rule="evenodd" clip-rule="evenodd" d="M0 0v24h32V0H0z" fill="#C51918"/>
    <mask id="b" maskUnits="userSpaceOnUse" x="0" y="0" width="32" height="24">
      <path fill-rule="evenodd" clip-rule="evenodd" d="M0 0v24h32V0H0z" fill="#fff"/>
    </mask>
    <g mask="url(#b)">
      <path fill-rule="evenodd" clip-rule="evenodd" d="M15.982 17.867c.107 0 .214-.003.32-.009l.617 1.968.142-2.056a6 6 0 00.608-.142l1.058 1.773-.339-2.034a5.99 5.99 0 00.557-.278l1.443 1.485-.803-1.903c.165-.125.325-.257.476-.398l1.75 1.116-1.224-1.669c.133-.158.257-.323.373-.495l1.962.685-1.578-1.342c.092-.184.174-.374.247-.568l2.067.217-1.847-.944c.047-.2.083-.403.108-.61l2.062-.261-2.017-.497a5.96 5.96 0 00-.035-.619l1.944-.725-2.075-.022a5.848 5.848 0 00-.179-.595l1.72-1.149-2.021.453a5.93 5.93 0 00-.314-.54l1.406-1.51-1.86.903a5.998 5.998 0 00-.431-.454l1.016-1.79-1.6 1.303a5.997 5.997 0 00-.525-.345l.572-1.97-1.251 1.63a5.976 5.976 0 00-.594-.215l.098-2.046-.837 1.871a6.039 6.039 0 00-.629-.073L15.99 4l-.38 2.011a6.046 6.046 0 00-.63.072l-.836-1.869.098 2.041a5.963 5.963 0 00-.597.215l-1.247-1.625.57 1.963c-.184.106-.36.222-.531.346l-1.592-1.296 1.01 1.78a6 6 0 00-.435.458L9.57 7.2l1.397 1.5a5.892 5.892 0 00-.318.546l-2.01-.45 1.71 1.14a5.922 5.922 0 00-.182.604l-2.06.022 1.93.72a5.963 5.963 0 00-.036.627l-2.002.494 2.046.259c.026.21.063.416.11.618l-1.834.938 2.053-.216c.074.197.158.389.252.575L9.057 15.91l1.95-.68c.117.173.243.34.377.5l-1.217 1.659 1.742-1.11a6 6 0 00.481.4l-.8 1.895 1.438-1.48c.181.102.369.196.561.28l-.338 2.027 1.056-1.77c.2.058.403.105.61.142l.143 2.053.617-1.967c.1.005.203.008.305.008zm4.5-5.951c0 2.484-2.03 4.499-4.536 4.499-2.505 0-4.536-2.014-4.536-4.5 0-2.484 2.03-4.498 4.536-4.498 2.505 0 4.536 2.014 4.536 4.499zM19.11 13.38c.19-.425.295-.896.295-1.392 0-.485-.1-.945-.282-1.363a5.355 5.355 0 00-1.985.525c1.195.523 1.736 1.383 1.972 2.23zm-.385.658c-.098.13-.205.255-.32.37-.064-1.18-.569-2.08-1.475-3.052 1.122.537 1.754 1.821 1.795 2.682zm-.859.811a3.39 3.39 0 01-.194.12c-.27-1.327-.78-2.373-1.489-3.21l.172-.13a4.53 4.53 0 01.07-.051c.908 1.044 1.48 1.94 1.441 3.271zm-1.89.568c.402 0 .788-.07 1.147-.197-.26-1.262-.715-2.437-1.372-3.286-.785.935-1.185 1.992-1.2 3.174.434.199.916.31 1.424.31zm-.66-3.889l.078.064c-.837.951-1.294 2.024-1.372 3.214a3.434 3.434 0 01-.296-.23c.315-1.258.838-2.296 1.59-3.048zm-2.498-.88c.786.089 1.406.28 1.871.501-1.185.504-1.652 1.315-1.886 2.142a3.418 3.418 0 01-.257-1.303c0-.476.097-.928.272-1.34zm.43 3.419a3.591 3.591 0 01-.077-.105c.06-.87.613-2.102 1.73-2.61-.75.727-1.31 1.556-1.653 2.715zm.254-4.454a3.42 3.42 0 012.473-1.054c.957 0 1.822.391 2.445 1.024-.98.113-1.81.358-2.483.74-.601-.345-1.413-.578-2.435-.71z" fill="#FFDC17"/>
    </g>
  </g>
</svg>
